X: 1
T: Tae The Beggin'
M: 4/4
L: 1/8
R: reel
K: Emin
|:&quot;Em&quot;g2fg &quot;Bm&quot;agfa|gefg &quot;Em&quot;dB~B2|g2fg &quot;Bm&quot;agfa|1gefd &quot;Em&quot;~e3f:|2gefd &quot;Em&quot;~e3g||
|:&quot;G&quot;dB~B2 dGBd|dGBd &quot;D&quot;cAAe|&quot;G&quot;dB~B2 defd|1&quot;C&quot;~g2 fd &quot;D&quot;eage:|2&quot;C&quot;~g2 fd &quot;D&quot;edef||
